X: 52
T: No_8_Song_of_the_Bear_Dance_(b).krn
N: Derived from No_8_Song_of_the_Bear_Dance_(b).krn
%%abc-version 2.0
%%abcx-abcm2ps-target-version 5.9.1 (29 Sep 2008)
%%abc-creator hum2abc beta
%%abcx-conversion-date 2019/03/15 08:35:01
%%humdrum-veritas 2730185870
%%humdrum-veritas-data 3177792310
%%linebreak <none>
%%barnumbers 0
L: 1/8
M: 3/4
K: Bb clef=bass
z D [I:setbarnb 1]| 
B,3/G,/ F,B,- B,3/C/ | 
C/B,B,/ B,A, B,C | 
B,A, F,B,- B,3/C/ | 
B,A, B,A, B,C | 
B,A, F,B, z C ]|:  
CCC3C | 
B,G, F,B,- B,C | 
C/B,/B, B,A, B,C | 
B,G, F,B, z C | 
CB,/B,/ B,A, B,C | 
B,A, F,B, B,/ z/ C :|]  
CCC3C | 
B,G, F,B,- B,C | 
CB,/B,/ B,A, B, z |]  



